Newaita-dark/actions/24/stroke-cap-square.svg

<svg height="24" viewBox="0 0 24 24" width="24" xmlns="http://www.w3.org/2000/svg"><path d="m2.976562 2.171875v19.847656h6.945313v-12.902343h3.96875v12.902343h6.949219v-19.847656zm1.984376 1.984375h13.890624v15.875h-2.976562v-12.898438h-7.9375v12.898438h-2.976562zm0 0" fill="#e0e0e0"/></svg>

<svg xmlns="http://www.w3.org/2000/svg" xmlns:xlink="http://www.w3.org/1999/xlink" width="24px" height="24px" viewBox="0 0 24 24" version="1.1">
<g id="surface1">
     <defs>
  <style id="current-color-scheme" type="text/css">
   .ColorScheme-Text { color:#eeeeee; } .ColorScheme-Highlight { color:#424242; }
  </style>
 </defs>
<path style="fill:currentColor" class="ColorScheme-Text" d="M 2.976562 2.171875 L 2.976562 22.019531 L 9.921875 22.019531 L 9.921875 9.117188 L 13.890625 9.117188 L 13.890625 22.019531 L 20.839844 22.019531 L 20.839844 2.171875 Z M 4.960938 4.15625 L 18.851562 4.15625 L 18.851562 20.03125 L 15.875 20.03125 L 15.875 7.132812 L 7.9375 7.132812 L 7.9375 20.03125 L 4.960938 20.03125 Z M 4.960938 4.15625 "/>
</g>
</svg>
